assets/images/add-photo.svg

<svg width="22" height="22" viewBox="0 0 22 22" fill="none" xmlns="http://www.w3.org/2000/svg">
<g clip-path="url(#clip0)">
<path d="M12.9443 9.74291C14.0183 10.8169 14.0183 12.5581 12.9443 13.6321C11.8703 14.7061 10.1291 14.7061 9.05512 13.6321C7.98114 12.5581 7.98114 10.8169 9.05512 9.74291C10.1291 8.66893 11.8703 8.66893 12.9443 9.74291Z" fill="#989898"/>
<path d="M19.25 4.12481H17.3499L15.9742 1.37471H6.02455L4.65015 4.12616L2.75275 4.12953C1.24009 4.13224 0.00869272 5.36494 0.00738656 6.87828L0 17.8746C0 19.3913 1.23337 20.6253 2.7501 20.6253H19.25C20.7667 20.6253 22.0001 19.392 22.0001 17.8752V6.87486C22 5.35818 20.7666 4.12481 19.25 4.12481ZM10.9997 17.1877C7.9669 17.1877 5.49947 14.7203 5.49947 11.6875C5.49947 8.65475 7.9669 6.18732 10.9997 6.18732C14.0324 6.18732 16.4999 8.65475 16.4999 11.6875C16.4999 14.7203 14.0324 17.1877 10.9997 17.1877Z" fill="#989898"/>
</g>
<defs>
<clipPath id="clip0">
<rect width="22" height="22" fill="white"/>
</clipPath>
</defs>
</svg>

<svg width="22" height="22" fill="none" xmlns="http://www.w3.org/2000/svg"><g clip-path="url(#a)" fill="#989898"><path d="M12.944 9.743a2.75 2.75 0 1 1-3.889 3.89 2.75 2.75 0 0 1 3.89-3.89Z"/><path d="M19.25 4.125h-1.9l-1.376-2.75h-9.95L4.65 4.126l-1.897.004A2.755 2.755 0 0 0 .007 6.878L0 17.875a2.753 2.753 0 0 0 2.75 2.75h16.5a2.753 2.753 0 0 0 2.75-2.75v-11a2.753 2.753 0 0 0-2.75-2.75ZM11 17.188a5.506 5.506 0 0 1-5.5-5.5c0-3.033 2.467-5.5 5.5-5.5 3.032 0 5.5 2.467 5.5 5.5 0 3.032-2.468 5.5-5.5 5.5Z"/></g><defs><clipPath id="a"><path fill="#fff" d="M0 0h22v22H0z"/></clipPath></defs></svg>
